; generated by Slic3r Prusa Edition 1.41.1+linux64 on 2018-12-09 at 21:07:27

; 

; external perimeters extrusion width = 0.45mm
; perimeters extrusion width = 0.45mm
; infill extrusion width = 0.45mm
; solid infill extrusion width = 0.45mm
; top infill extrusion width = 0.40mm
; first layer extrusion width = 0.40mm

M201 X9000 Y9000 Z500 E10000 ; sets maximum accelerations, mm/sec^2
M203 X500 Y500 Z12 E120 ; sets maximum feedrates, mm/sec
M204 P1500 R1500 T1500 ; sets acceleration (P, T) and retract acceleration (R), mm/sec^2
M205 X10.00 Y10.00 Z0.20 E2.50 ; sets the jerk limits, mm/sec
M205 S0 T0 ; sets the minimum extruding and travel feed rate, mm/sec
M107
M190 S60 ; set bed temperature and wait for it to be reached
G28;
M104 S205 ; set temperature
M117    Temperature-Calibration;
M109 S205 ; set temperature and wait for it to be reached
G1 E50 F1800 ; re-retract filament
M420 S1;
G1 Z5 F6000;
;M900 K200; Filament gcode
G21 ; set units to millimeters
G90 ; use absolute coordinates
M83 ; use relative distances for extrusion
;BEFORE_LAYER_CHANGE
;Layer 0
;0.2mm
;Printing layer 0 at 0.2mm


G1 E-6.80000 F3600.00000
G1 Z0.600 F10200.000
;AFTER_LAYER_CHANGE
M117 0 - 0.2mm ;Layer 0
;0.2mm
;Printing layer 0 at 0.2mm


G1 X90.375 Y84.794
G1 Z0.200
G1 E6.80000 F3600.00000
M204 S500
G1 F1800
G1 X91.537 Y83.958 E0.04251
G1 X92.840 Y83.380 E0.04232
G1 X94.240 Y83.078 E0.04251
G1 X115.007 Y83.036 E0.61660
G1 X116.207 Y83.141 E0.03577
G1 X117.377 Y83.454 E0.03596
G1 X118.475 Y83.965 E0.03596
G1 X119.468 Y84.658 E0.03596
G1 X120.326 Y85.513 E0.03596
G1 X121.023 Y86.503 E0.03596
G1 X121.537 Y87.600 E0.03596
G1 X121.854 Y88.769 E0.03596
G1 X121.964 Y89.968 E0.03577
G1 X121.955 Y110.345 E0.60502
G1 X121.830 Y111.360 E0.03036
G1 X121.557 Y112.346 E0.03036
G1 X121.143 Y113.281 E0.03036
G1 X120.592 Y114.150 E0.03056
G1 X119.547 Y115.275 E0.04559
G1 X118.280 Y116.143 E0.04559
G1 X116.854 Y116.713 E0.04559
G1 X115.338 Y116.956 E0.04559
G1 X94.616 Y116.953 E0.61528
G1 X93.614 Y116.825 E0.02998
G1 X92.636 Y116.550 E0.03017
G1 X91.708 Y116.137 E0.03017
G1 X90.850 Y115.592 E0.03017
G1 X89.725 Y114.547 E0.04559
G1 X88.857 Y113.280 E0.04559
G1 X88.287 Y111.854 E0.04559
G1 X88.044 Y110.338 E0.04559
G1 X88.047 Y89.616 E0.61528
G1 X88.175 Y88.614 E0.02998
G1 X88.450 Y87.636 E0.03017
G1 X88.863 Y86.708 E0.03017
G1 X89.408 Y85.850 E0.03017
G1 X90.334 Y84.838 E0.04073
G1 X90.597 Y85.082 F10200.000
G1 F1800
G1 X91.743 Y84.252 E0.04201
G1 X92.986 Y83.708 E0.04028
G1 X94.314 Y83.429 E0.04028
G1 X115.006 Y83.393 E0.61439
G1 X116.156 Y83.495 E0.03427
G1 X117.265 Y83.793 E0.03408
G1 X118.310 Y84.282 E0.03427
G1 X119.255 Y84.946 E0.03427
G1 X120.070 Y85.763 E0.03427
G1 X120.730 Y86.710 E0.03427
G1 X121.215 Y87.758 E0.03427
G1 X121.510 Y88.873 E0.03427
G1 X121.607 Y89.973 E0.03277
G1 X121.599 Y110.324 E0.60425
G1 X121.478 Y111.300 E0.02920
G1 X121.213 Y112.247 E0.02920
G1 X120.811 Y113.144 E0.02920
G1 X120.280 Y113.972 E0.02920
G1 X119.285 Y115.029 E0.04309
G1 X118.084 Y115.843 E0.04309
G1 X116.728 Y116.377 E0.04328
G1 X115.294 Y116.600 E0.04309
G1 X94.645 Y116.597 E0.61310
G1 X93.682 Y116.474 E0.02882
G1 X92.741 Y116.209 E0.02901
G1 X91.850 Y115.808 E0.02901
G1 X91.028 Y115.280 E0.02901
G1 X89.971 Y114.285 E0.04309
G1 X89.157 Y113.084 E0.04309
G1 X88.623 Y111.728 E0.04328
G1 X88.400 Y110.294 E0.04309
G1 X88.403 Y89.645 E0.61310
G1 X88.526 Y88.682 E0.02882
G1 X88.791 Y87.741 E0.02901
G1 X89.192 Y86.850 E0.02901
G1 X89.720 Y86.028 E0.02901
G1 X90.557 Y85.126 E0.03654
G1 X90.818 Y85.371 F10200.000
G1 F1800
G1 X90.903 Y85.281 E0.00367
G1 X91.952 Y84.544 E0.03808
G1 X93.130 Y84.037 E0.03808
G1 X94.386 Y83.780 E0.03808
G1 X115.006 Y83.750 E0.61223
G1 X116.100 Y83.848 E0.03260
G1 X117.159 Y84.135 E0.03260
G1 X118.147 Y84.600 E0.03242
G1 X119.043 Y85.235 E0.03260
G1 X119.815 Y86.016 E0.03260
G1 X120.438 Y86.920 E0.03260
G1 X120.893 Y87.919 E0.03260
G1 X121.166 Y88.982 E0.03260
G1 X121.250 Y89.978 E0.02968
G1 X121.242 Y110.303 E0.60345
G1 X121.127 Y111.233 E0.02785
G1 X120.871 Y112.142 E0.02803
G1 X120.485 Y112.997 E0.02785
G1 X119.971 Y113.788 E0.02803
G1 X119.022 Y114.783 E0.04081
G1 X117.885 Y115.544 E0.04063
G1 X116.609 Y116.039 E0.04063
G1 X115.256 Y116.245 E0.04063
G1 X94.673 Y116.241 E0.61115
G1 X93.749 Y116.123 E0.02766
G1 X92.846 Y115.867 E0.02785
G1 X91.998 Y115.482 E0.02766
G1 X91.212 Y114.971 E0.02785
G1 X90.217 Y114.022 E0.04081
G1 X89.456 Y112.885 E0.04063
G1 X88.961 Y111.609 E0.04063
G1 X88.755 Y110.256 E0.04063
G1 X88.759 Y89.673 E0.61115
G1 X88.877 Y88.749 E0.02766
G1 X89.133 Y87.846 E0.02785
G1 X89.518 Y86.998 E0.02766
G1 X90.029 Y86.212 E0.02785
G1 X90.777 Y85.415 E0.03244
G1 X91.164 Y85.527 F10200.000
G1 F1800
G1 X92.158 Y84.838 E0.03591
G1 X93.272 Y84.366 E0.03591
G1 X94.458 Y84.132 E0.03591
G1 X115.006 Y84.107 E0.61008
G1 X116.044 Y84.201 E0.03094
G1 X117.044 Y84.473 E0.03077
G1 X117.980 Y84.916 E0.03077
G1 X118.829 Y85.521 E0.03094
G1 X119.554 Y86.261 E0.03077
G1 X120.142 Y87.122 E0.03094
G1 X120.567 Y88.067 E0.03077
G1 X120.820 Y89.078 E0.03094
G1 X120.893 Y89.979 E0.02686
G1 X120.886 Y110.276 E0.60262
G1 X120.776 Y111.168 E0.02668
G1 X120.531 Y112.032 E0.02668
G1 X120.158 Y112.850 E0.02668
G1 X119.664 Y113.601 E0.02668
G1 X118.771 Y114.528 E0.03821
G1 X117.699 Y115.238 E0.03821
G1 X116.497 Y115.699 E0.03821
G1 X115.224 Y115.888 E0.03821
G1 X94.700 Y115.885 E0.60939
G1 X93.815 Y115.772 E0.02651
G1 X92.956 Y115.527 E0.02651
G1 X92.145 Y115.155 E0.02651
G1 X91.399 Y114.664 E0.02651
G1 X90.472 Y113.771 E0.03821
G1 X89.762 Y112.699 E0.03821
G1 X89.301 Y111.497 E0.03821
G1 X89.112 Y110.224 E0.03821
G1 X89.115 Y89.700 E0.60939
G1 X89.228 Y88.815 E0.02651
G1 X89.473 Y87.956 E0.02651
G1 X89.845 Y87.145 E0.02651
G1 X90.336 Y86.399 E0.02651
G1 X91.123 Y85.570 E0.03395
G1 X91.382 Y85.819 F10200.000
G1 F1800
G1 X91.428 Y85.771 E0.00199
G1 X92.363 Y85.133 E0.03360
G1 X93.407 Y84.698 E0.03360
G1 X94.519 Y84.485 E0.03360
G1 X115.006 Y84.464 E0.60829
G1 X115.983 Y84.552 E0.02913
G1 X116.929 Y84.811 E0.02913
G1 X117.815 Y85.233 E0.02913
G1 X118.612 Y85.805 E0.02913
G1 X119.296 Y86.509 E0.02913
G1 X119.845 Y87.322 E0.02913
G1 X120.241 Y88.219 E0.02913
G1 X120.474 Y89.178 E0.02930
G1 X120.536 Y89.983 E0.02397
G1 X120.530 Y110.256 E0.60192
G1 X120.425 Y111.103 E0.02534
G1 X120.189 Y111.929 E0.02552
G1 X119.830 Y112.704 E0.02534
G1 X119.357 Y113.414 E0.02534
G1 X118.518 Y114.274 E0.03565
G1 X117.509 Y114.935 E0.03583
G1 X116.380 Y115.361 E0.03583
G1 X115.186 Y115.533 E0.03583
G1 X94.727 Y115.529 E0.60744
G1 X93.886 Y115.422 E0.02517
G1 X93.065 Y115.187 E0.02534
G1 X92.296 Y114.830 E0.02517
G1 X91.586 Y114.357 E0.02534
G1 X90.726 Y113.518 E0.03565
G1 X90.066 Y112.509 E0.03583
G1 X89.639 Y111.380 E0.03583
G1 X89.467 Y110.186 E0.03583
G1 X89.471 Y89.727 E0.60744
G1 X89.578 Y88.886 E0.02517
G1 X89.813 Y88.065 E0.02534
G1 X90.170 Y87.296 E0.02517
G1 X90.643 Y86.586 E0.02534
G1 X91.340 Y85.862 E0.02982
G1 X91.596 Y86.113 F10200.000
G1 F1800
G1 X91.685 Y86.022 E0.00378
G1 X92.565 Y85.430 E0.03149
G1 X93.542 Y85.031 E0.03133
G1 X94.579 Y84.839 E0.03133
G1 X115.006 Y84.821 E0.60648
G1 X115.923 Y84.904 E0.02734
G1 X116.811 Y85.148 E0.02734
G1 X117.641 Y85.546 E0.02734
G1 X118.393 Y86.088 E0.02751
G1 X119.032 Y86.750 E0.02734
G1 X119.546 Y87.521 E0.02751
G1 X119.914 Y88.365 E0.02734
G1 X120.126 Y89.267 E0.02751
G1 X120.179 Y89.989 E0.02152
G1 X120.173 Y110.230 E0.60098
G1 X120.074 Y111.033 E0.02401
G1 X119.850 Y111.816 E0.02418
G1 X119.508 Y112.549 E0.02401
G1 X119.053 Y113.224 E0.02418
G1 X118.263 Y114.021 E0.03332
G1 X117.320 Y114.630 E0.03332
G1 X116.268 Y115.021 E0.03332
G1 X115.157 Y115.176 E0.03332
G1 X94.753 Y115.173 E0.60582
G1 X93.956 Y115.072 E0.02385
G1 X93.179 Y114.848 E0.02401
G1 X92.446 Y114.505 E0.02401
G1 X91.776 Y114.053 E0.02401
G1 X90.979 Y113.263 E0.03332
G1 X90.370 Y112.320 E0.03332
G1 X89.979 Y111.268 E0.03332
G1 X89.824 Y110.157 E0.03332
G1 X89.827 Y89.753 E0.60582
G1 X89.928 Y88.956 E0.02385
G1 X90.152 Y88.179 E0.02401
G1 X90.495 Y87.446 E0.02401
G1 X90.947 Y86.776 E0.02401
G1 X91.554 Y86.156 E0.02576
; PURGING FINISHED
G1 E-4.08000 F3600.00000
G1 F8160
G1 X91.685 Y86.022 E-0.07854
G1 X92.565 Y85.430 E-0.44456
G1 X93.542 Y85.031 E-0.44221
G1 X94.579 Y84.839 E-0.44222
G1 X97.386 Y84.836 E-1.17647
G1 E-0.13600 F3600.00000
G1 Z0.800 F10200.000
G1 X95.250 Y90.250
G1 Z0.200
G1 E6.80000 F3600.00000
G1 F1800
G1 X114.750 Y90.250 E0.57898
G1 X114.750 Y109.750 E0.57898
G1 X95.250 Y109.750 E0.57898
G1 X95.250 Y90.310 E0.57720
G1 E-4.08000 F3600.00000
G1 F8160
G1 X101.415 Y90.291 E-2.58400
G1 E-0.13600 F3600.00000
G1 Z0.800 F10200.000
G1 X96.084 Y109.643
G1 Z0.200
G1 E6.80000 F3600.00000
G1 F1800
G1 X95.518 Y109.077 E0.02394
G1 X95.518 Y108.568 E0.01520
G1 X96.432 Y109.482 E0.03865
G1 X96.940 Y109.482 E0.01520
G1 X95.518 Y108.060 E0.06014
G1 X95.518 Y107.551 E0.01520
G1 X97.449 Y109.482 E0.08164
G1 X97.957 Y109.482 E0.01520
G1 X95.518 Y107.043 E0.10314
G1 X95.518 Y106.534 E0.01520
G1 X98.466 Y109.482 E0.12463
G1 X98.974 Y109.482 E0.01520
G1 X95.518 Y106.026 E0.14613
G1 X95.518 Y105.517 E0.01520
G1 X99.483 Y109.482 E0.16763
G1 X99.991 Y109.482 E0.01520
G1 X95.518 Y105.009 E0.18913
G1 X95.518 Y104.500 E0.01520
G1 X100.500 Y109.482 E0.21062
G1 X101.008 Y109.482 E0.01520
G1 X95.518 Y103.992 E0.23212
G1 X95.518 Y103.484 E0.01520
G1 X101.516 Y109.482 E0.25362
G1 X102.025 Y109.482 E0.01520
G1 X95.518 Y102.975 E0.27511
G1 X95.518 Y102.467 E0.01520
G1 X102.533 Y109.482 E0.29661
G1 X103.042 Y109.482 E0.01520
G1 X95.518 Y101.958 E0.31811
G1 X95.518 Y101.450 E0.01520
G1 X103.550 Y109.482 E0.33960
G1 X104.059 Y109.482 E0.01520
G1 X95.518 Y100.941 E0.36110
G1 X95.518 Y100.433 E0.01520
G1 X104.567 Y109.482 E0.38260
G1 X105.076 Y109.482 E0.01520
G1 X95.518 Y99.924 E0.40409
G1 X95.518 Y99.416 E0.01520
G1 X105.584 Y109.482 E0.42559
G1 X106.093 Y109.482 E0.01520
G1 X95.518 Y98.907 E0.44709
G1 X95.518 Y98.399 E0.01520
G1 X106.601 Y109.482 E0.46859
G1 X107.110 Y109.482 E0.01520
G1 X95.518 Y97.890 E0.49008
G1 X95.518 Y97.382 E0.01520
G1 X107.618 Y109.482 E0.51158
G1 X108.126 Y109.482 E0.01520
G1 X95.518 Y96.874 E0.53308
G1 X95.518 Y96.365 E0.01520
G1 X108.635 Y109.482 E0.55457
G1 X109.143 Y109.482 E0.01520
G1 X95.518 Y95.857 E0.57607
G1 X95.518 Y95.348 E0.01520
G1 X109.652 Y109.482 E0.59757
G1 X110.160 Y109.482 E0.01520
G1 X95.518 Y94.840 E0.61906
G1 X95.518 Y94.331 E0.01520
G1 X110.669 Y109.482 E0.64056
G1 X111.177 Y109.482 E0.01520
G1 X95.518 Y93.823 E0.66206
G1 X95.518 Y93.314 E0.01520
G1 X111.686 Y109.482 E0.68355
G1 X112.194 Y109.482 E0.01520
G1 X95.518 Y92.806 E0.70505
G1 X95.518 Y92.297 E0.01520
G1 X112.703 Y109.482 E0.72655
G1 X113.211 Y109.482 E0.01520
G1 X95.518 Y91.789 E0.74805
G1 X95.518 Y91.280 E0.01520
G1 X113.720 Y109.482 E0.76954
G1 X114.228 Y109.482 E0.01520
G1 X95.518 Y90.772 E0.79104
G1 X95.518 Y90.518 E0.00760
G1 X95.772 Y90.518 E0.00760
G1 X114.482 Y109.228 E0.79104
G1 X114.482 Y108.720 E0.01520
G1 X96.280 Y90.518 E0.76954
G1 X96.789 Y90.518 E0.01520
G1 X114.482 Y108.211 E0.74805
G1 X114.482 Y107.703 E0.01520
G1 X97.297 Y90.518 E0.72655
G1 X97.806 Y90.518 E0.01520
G1 X114.482 Y107.194 E0.70505
G1 X114.482 Y106.686 E0.01520
G1 X98.314 Y90.518 E0.68356
G1 X98.823 Y90.518 E0.01520
G1 X114.482 Y106.177 E0.66206
G1 X114.482 Y105.669 E0.01520
G1 X99.331 Y90.518 E0.64056
G1 X99.840 Y90.518 E0.01520
G1 X114.482 Y105.160 E0.61907
G1 X114.482 Y104.652 E0.01520
G1 X100.348 Y90.518 E0.59757
G1 X100.857 Y90.518 E0.01520
G1 X114.482 Y104.143 E0.57607
G1 X114.482 Y103.635 E0.01520
G1 X101.365 Y90.518 E0.55457
G1 X101.874 Y90.518 E0.01520
G1 X114.482 Y103.126 E0.53308
G1 X114.482 Y102.618 E0.01520
G1 X102.382 Y90.518 E0.51158
G1 X102.890 Y90.518 E0.01520
G1 X114.482 Y102.110 E0.49008
G1 X114.482 Y101.601 E0.01520
G1 X103.399 Y90.518 E0.46859
G1 X103.907 Y90.518 E0.01520
G1 X114.482 Y101.093 E0.44709
G1 X114.482 Y100.584 E0.01520
G1 X104.416 Y90.518 E0.42559
G1 X104.924 Y90.518 E0.01520
G1 X114.482 Y100.076 E0.40410
G1 X114.482 Y99.567 E0.01520
G1 X105.433 Y90.518 E0.38260
G1 X105.941 Y90.518 E0.01520
G1 X114.482 Y99.059 E0.36110
G1 X114.482 Y98.550 E0.01520
G1 X106.450 Y90.518 E0.33961
G1 X106.958 Y90.518 E0.01520
G1 X114.482 Y98.042 E0.31811
G1 X114.482 Y97.533 E0.01520
G1 X107.467 Y90.518 E0.29661
G1 X107.975 Y90.518 E0.01520
G1 X114.482 Y97.025 E0.27511
G1 X114.482 Y96.517 E0.01520
G1 X108.483 Y90.518 E0.25362
G1 X108.992 Y90.518 E0.01520
G1 X114.482 Y96.008 E0.23212
G1 X114.482 Y95.500 E0.01520
G1 X109.500 Y90.518 E0.21062
G1 X110.009 Y90.518 E0.01520
G1 X114.482 Y94.991 E0.18913
G1 X114.482 Y94.483 E0.01520
G1 X110.517 Y90.518 E0.16763
G1 X111.026 Y90.518 E0.01520
G1 X114.482 Y93.974 E0.14613
G1 X114.482 Y93.466 E0.01520
G1 X111.534 Y90.518 E0.12464
G1 X112.043 Y90.518 E0.01520
G1 X114.482 Y92.957 E0.10314
G1 X114.482 Y92.449 E0.01520
G1 X112.551 Y90.518 E0.08164
G1 X113.060 Y90.518 E0.01520
G1 X114.482 Y91.940 E0.06015
G1 X114.482 Y91.432 E0.01520
G1 X113.568 Y90.518 E0.03865
G1 X114.077 Y90.518 E0.01520
G1 X114.643 Y91.084 E0.02395
M106 S255
;BEFORE_LAYER_CHANGE
;Layer 1
;0.4mm
;Printing layer 1 at 0.4mm


G1 E-4.08000 F3600.00000
G1 F8160
G1 X114.077 Y90.518 E-0.33570
G1 X113.568 Y90.518 E-0.21310
G1 X114.482 Y91.432 E-0.54183
G1 X114.482 Y91.940 E-0.21310
G1 X113.060 Y90.518 E-0.84321
G1 X112.551 Y90.518 E-0.21310
G1 X112.929 Y90.896 E-0.22395
G1 E-0.13600 F3600.00000
G1 Z0.800 F10200.000
;AFTER_LAYER_CHANGE
M117 1 - 0.4mm ;Layer 1
;0.4mm
;Printing layer 1 at 0.4mm


M104 S200 ; set temperature
G1 X121.854 Y88.769
G1 Z0.400
G1 E6.80000 F3600.00000
G1 F2700
G1 X121.964 Y89.968 E0.03577
G1 X121.955 Y110.345 E0.60502
G1 X121.830 Y111.360 E0.03036
G1 X121.557 Y112.346 E0.03036
G1 X121.143 Y113.281 E0.03036
G1 X120.592 Y114.150 E0.03056
G1 X119.547 Y115.275 E0.04559
G1 X118.280 Y116.143 E0.04559
G1 X116.854 Y116.713 E0.04559
G1 X115.338 Y116.956 E0.04559
G1 X94.616 Y116.953 E0.61528
G1 X93.614 Y116.825 E0.02998
G1 X92.636 Y116.550 E0.03017
G1 X91.708 Y116.137 E0.03017
G1 X90.850 Y115.592 E0.03017
G1 X89.725 Y114.547 E0.04559
G1 X88.857 Y113.280 E0.04559
G1 X88.287 Y111.854 E0.04559
G1 X88.044 Y110.338 E0.04559
G1 X88.047 Y89.616 E0.61528
G1 X88.175 Y88.614 E0.02998
G1 X88.450 Y87.636 E0.03017
G1 X88.863 Y86.708 E0.03017
G1 X89.408 Y85.850 E0.03017
G1 X90.375 Y84.794 E0.04251
G1 X91.537 Y83.958 E0.04251
G1 X92.840 Y83.380 E0.04232
G1 X94.240 Y83.078 E0.04251
G1 X115.007 Y83.036 E0.61660
G1 X116.207 Y83.141 E0.03577
G1 X117.377 Y83.454 E0.03596
G1 X118.475 Y83.965 E0.03596
G1 X119.468 Y84.658 E0.03596
G1 X120.326 Y85.513 E0.03596
G1 X121.023 Y86.503 E0.03596
G1 X121.537 Y87.600 E0.03596
G1 X121.839 Y88.711 E0.03418
; PURGING FINISHED
G1 E-4.08000 F3600.00000
G1 F8160
G1 X121.964 Y89.968 E-0.52966
G1 X121.962 Y94.870 E-2.05434
G1 E-0.13600 F3600.00000
G1 Z1.000 F10200.000
G1 X114.775 Y90.225
G1 Z0.400
G1 E6.80000 F3600.00000
G1 F2100
G1 X114.775 Y109.775 E0.66174
G1 X95.225 Y109.775 E0.66174
G1 X95.225 Y90.225 E0.66174
G1 X114.715 Y90.225 E0.65971
G1 E-4.08000 F3600.00000
G1 F8160
G1 X114.734 Y96.390 E-2.58400
G1 E-0.13600 F3600.00000
G1 Z1.000 F10200.000
G1 X96.173 Y90.347
G1 Z0.400
G1 E6.80000 F3600.00000
G1 F4183
G1 X95.530 Y90.989 E0.03085
G1 X95.530 Y91.567 E0.01961
G1 X96.567 Y90.530 E0.04978
G1 X97.144 Y90.530 E0.01961
G1 X95.530 Y92.144 E0.07751
G1 X95.530 Y92.722 E0.01961
G1 X97.722 Y90.530 E0.10524
G1 X98.299 Y90.530 E0.01961
G1 X95.530 Y93.299 E0.13298
G1 X95.530 Y93.877 E0.01961
G1 X98.877 Y90.530 E0.16071
G1 X99.454 Y90.530 E0.01961
G1 X95.530 Y94.454 E0.18844
G1 X95.530 Y95.032 E0.01961
G1 X100.032 Y90.530 E0.21617
G1 X100.610 Y90.530 E0.01961
G1 X95.530 Y95.610 E0.24390
G1 X95.530 Y96.187 E0.01961
G1 X101.187 Y90.530 E0.27164
G1 X101.765 Y90.530 E0.01961
G1 X95.530 Y96.765 E0.29937
G1 X95.530 Y97.342 E0.01961
G1 X102.342 Y90.530 E0.32710
G1 X102.920 Y90.530 E0.01961
G1 X95.530 Y97.920 E0.35483
G1 X95.530 Y98.497 E0.01961
G1 X103.497 Y90.530 E0.38256
G1 X104.075 Y90.530 E0.01961
G1 X95.530 Y99.075 E0.41029
G1 X95.530 Y99.652 E0.01961
G1 X104.652 Y90.530 E0.43803
G1 X105.230 Y90.530 E0.01961
G1 X95.530 Y100.230 E0.46576
